X:1
T:5 Lieder
T:Des Kaufmanns Liebeswerbung
T:5 Lieder
T:1. Des Kaufmanns Liebeswerbung 
T:Emilie Zumsteeg
T:(Conradi?)
T:Drum nimm mich zum Associé deines Lebens, Lass zum mindsten dein Commis mich sein; Denn das ganze Facit meines Strebens Ist der Wunsch: dein Compagnon zu sein. 
T:Stand im Kurs al pari deine Liebe, Mit der mein'gen prompt bezahlte ich Dein Ordres vista, anders bliebe Nichts zu speculieren mehr für mich. 
T:Creative Commons copyright waiver (CC0 1.0 Universal)
C:Emilie Zumsteeg
Z:Possibly by Conradi? (poem 'Der Kaufmann' is credited to Conradi in "Universal-Liederbuch weltlicher Liederschatz für Deutschlands Gesangfreunde" publ. Reutlingen 1841 - Druck und Verlag von Fleischauer & Spahn)
Z:Creative Commons copyright waiver (CC0 1.0 Universal)
%%score { 1 2 }
L:1/8
Q:1/4=100
M:3/4
K:D
V:1 treble nm="Gesang\nVoice"
V:2 treble-8 nm="Guitarre"
V:1
"^Alla Pollacca" F G | A F D d/c/ B/A/ G/F/ | AG E2 F E | (D E) F D G B | E2 z2 E E | %5
w: 1. Sieh mein|Herz hier oh- ne * Em- * bal- *|la- * ge voll ge-|packt vom in- nig- sten Ge-|fühl, oh- ne|
w: 2. Denn So-|phi- e, schwe- re * Seuf- * zer *|drin- * gen lang- sam|sich wie Sy- rop aus der|Brust; an des|
w: 3. Und doch|ist das De- bet * mei- * ner *|Schmer- * zen grös- ser|als das Cre- dit mei- ner|Lust, und ein|
w: 4. Wirst Du|nicht den Wech- sel * ho- * no- *|ri- * ren, den Cu-|pi- do mir auf Dich ge-|stellt, Dei- ne|
w: 5. Doch So-|phi- e, lässt Du * mit * dir *|hand- * eln, gibst mir|bil- * li- ge Pro- vi-|sion, wird sich|
 =G E A E B E | c>B A z A B/c/ | e/d/ A/F/ D/F/ B/A/{A} G/F/ G/C/ | (E2 D) z z2 | z6 | z6 :| %11
w: Spe- sen, oh- ne A- gio-|ta- * ge ko- stet *|mir * die * Süs- * se * Waa- * re *|viel. *|||
w: Her- zens Waa- ge- bal- ken|hän- * gen mir von *|glei- * cher * Schwe- * re * Schmerz * und *|Lust. *|||
w: Fal- li- ment ist oh- ne|Scher- * zen un- ver- *|meid- * lich * mei- * ner * ar- * men *|Brust. *|||
w: Lie- be mir as- se- cu-|ri- * ren, so ce- *|di- * re * ich * bald * die- * se *|Welt. *|||
w: in Pro- fit mein Schmerz ver-|wand- * len, und Pro- *|zen- * te * sind * der * Lie- * be *|Lohn. *|||
V:2
 z2 | D[Adf] D[Adf] D[Adf] | A,[Acg] A,[Acg] A,[Acg] | D[Adf] D[Adf] G,[GBg] | %4
 A,[Ace] [Ace][Ace] [Ace][Ace] | E,[^GB] E,[Ac] E,[GBd] | A,[ce] [ce][ce] A,[Acg] | %7
 D[Adf] D[Adf] A,[Acg] | [A,Acg]2 [DAdf] (F,/A,/ D/A/d/f/) | a2 [DAdf]2 [A,Ae]2 | [Fd]2 D2 z2 :| %11

